svg/editor/spacing_horizontal_line.svg

<?xml version="1.0" encoding="UTF-8"?>
<svg width="24px" height="24px" viewBox="0 0 24 24" version="1.1" xmlns="http://www.w3.org/2000/svg" xmlns:xlink="http://www.w3.org/1999/xlink">
    <title>spacing_horizontal_line</title>
    <g id="页面-1" stroke="none" stroke-width="1" fill="none" fill-rule="evenodd">
        <g id="Editor" transform="translate(-336.000000, -192.000000)" fill-rule="nonzero">
            <g id="spacing_horizontal_line" transform="translate(336.000000, 192.000000)">
                 <path d="M24,0 L24,24 L0,24 L0,0 L24,0 Z M12.5934901,23.257841 L12.5819402,23.2595131 L12.5108777,23.2950439 L12.4918791,23.2987469 L12.4918791,23.2987469 L12.4767152,23.2950439 L12.4056548,23.2595131 C12.3958229,23.2563662 12.3870493,23.2590235 12.3821421,23.2649074 L12.3780323,23.275831 L12.360941,23.7031097 L12.3658947,23.7234994 L12.3769048,23.7357139 L12.4804777,23.8096931 L12.4953491,23.8136134 L12.4953491,23.8136134 L12.5071152,23.8096931 L12.6106902,23.7357139 L12.6232938,23.7196733 L12.6232938,23.7196733 L12.6266527,23.7031097 L12.609561,23.275831 C12.6075724,23.2657013 12.6010112,23.2592993 12.5934901,23.257841 L12.5934901,23.257841 Z M12.8583906,23.1452862 L12.8445485,23.1473072 L12.6598443,23.2396597 L12.6498822,23.2499052 L12.6498822,23.2499052 L12.6471943,23.2611114 L12.6650943,23.6906389 L12.6699349,23.7034178 L12.6699349,23.7034178 L12.678386,23.7104931 L12.8793402,23.8032389 C12.8914285,23.8068999 12.9022333,23.8029875 12.9078286,23.7952264 L12.9118235,23.7811639 L12.8776777,23.1665331 C12.8752882,23.1545897 12.8674102,23.1470016 12.8583906,23.1452862 L12.8583906,23.1452862 Z M12.1430473,23.1473072 C12.1332178,23.1423925 12.1221763,23.1452606 12.1156365,23.1525954 L12.1099173,23.1665331 L12.0757714,23.7811639 C12.0751323,23.7926639 12.0828099,23.8018602 12.0926481,23.8045676 L12.108256,23.8032389 L12.3092106,23.7104931 L12.3186497,23.7024347 L12.3186497,23.7024347 L12.3225043,23.6906389 L12.340401,23.2611114 L12.337245,23.2485176 L12.337245,23.2485176 L12.3277531,23.2396597 L12.1430473,23.1473072 Z" id="MingCute" fill-rule="nonzero"></path>
                <path d="M6,3 C7.10457,3 8,3.89543 8,5 L8,19 C8,20.1046 7.10457,21 6,21 L4,21 C3.44772,21 3,20.5523 3,20 C3,19.4477 3.44772,19 4,19 L6,19 L6,5 L4,5 C3.44772,5 3,4.55228 3,4 C3,3.44772 3.44772,3 4,3 L6,3 Z M20,3 C20.5523,3 21,3.44772 21,4 C21,4.51283143 20.613973,4.93550653 20.1166239,4.9932722 L20,5 L18,5 L18,19 L20,19 C20.5523,19 21,19.4477 21,20 C21,20.51285 20.613973,20.9355092 20.1166239,20.9932725 L20,21 L18,21 C16.9456091,21 16.0818322,20.18415 16.0054856,19.1492661 L16,19 L16,5 C16,3.94563773 16.81585,3.08183483 17.8507339,3.00548573 L18,3 L20,3 Z M12,7 C12.51285,7 12.9355092,7.38604429 12.9932725,7.88337975 L13,8 L13,16 C13,16.5523 12.5523,17 12,17 C11.48715,17 11.0644908,16.613973 11.0067275,16.1166239 L11,16 L11,8 C11,7.44772 11.4477,7 12,7 Z" id="形状" fill="#09244B"></path>
            </g>
        </g>
    </g>
</svg>

<svg xmlns="http://www.w3.org/2000/svg" width="24" height="24"><g fill="none" fill-rule="nonzero"><path d="M24 0v24H0V0h24ZM12.593 23.258l-.011.002-.071.035-.02.004-.014-.004-.071-.035c-.01-.004-.019-.001-.024.005l-.004.01-.017.428.005.02.01.013.104.074.015.004.012-.004.104-.074.012-.016.004-.017-.017-.427c-.002-.01-.009-.017-.017-.018Zm.265-.113-.013.002-.185.093-.01.01-.003.011.018.43.005.012.008.007.201.093c.012.004.023 0 .029-.008l.004-.014-.034-.614c-.003-.012-.01-.02-.02-.022Zm-.715.002a.023.023 0 0 0-.027.006l-.006.014-.034.614c0 .012.007.02.017.024l.015-.002.201-.093.01-.008.004-.011.017-.43-.003-.012-.01-.01-.184-.092Z"/><path fill="#09244B" d="M6 3a2 2 0 0 1 2 2v14a2 2 0 0 1-2 2H4a1 1 0 1 1 0-2h2V5H4a1 1 0 0 1 0-2h2Zm14 0a1 1 0 0 1 .117 1.993L20 5h-2v14h2a1 1 0 0 1 .117 1.993L20 21h-2a2 2 0 0 1-1.995-1.85L16 19V5a2 2 0 0 1 1.85-1.995L18 3h2Zm-8 4a1 1 0 0 1 .993.883L13 8v8a1 1 0 0 1-1.993.117L11 16V8a1 1 0 0 1 1-1Z"/></g></svg>
